**kern	**kern	**dynam
*part1	*part1	*part1
*staff2	*staff1	*
*I"Piano	*	*
*clefF4	*clefG2	*
*k[f#c#g#d#a#e#]	*k[f#c#g#d#a#e#]	*
=1	=1	=1
8C#L 8G# 8c#	8e#L 8g# 8cc# 8ee#	.
8C# 8G# 8c#	8e# 8g# 8cc# 8ee#	.
8C#J 8G# 8c#	8e#J 8g# 8cc# 8ee#	.
=	=	=
8C#L 8G# 8c#	8e#L 8g# 8cc# 8ee#	[
8C# 8G# 8c#	8e# 8g# 8cc# 8ee#	.
8C#J 8G# 8c#	8e#J 8g# 8cc# 8ee#	.
=	=	=
4D#	8r	p
.	(8BL 8f#	.
8r	8f#J) 8b	.
=	=	=
4E#X	8r	.
.	(8c#L 8g#	.
8r	8g#J) 8b	.
=	=	=
4.F#	8r	.
.	8c#L 8e# 8g#	.
.	8e#J 8g# 8b	.
=	=	=
*	*^	*
4.FF#	4.a#	8f#L	.
.	.	8c#	.
.	.	8A#J	.
*	*v	*v	*
=	=	=
4.C#	8r	.
.	(8BL	.
.	8e#J) 8g#	.
=	=	=
4.C##X	8r	.
.	(8A#L	.
.	8e#J) 8g#	.
=	=	=
*-	*-	*-
!!!system-decoration: {(s1,s2)}
